X: 10362
T: Donachd Head
R: jig
M: 6/8
K: Amixolydian
e|AAA c2e|d2c BGB|AAA c2e|e2e ecA|
Bcd c2e|d2c BGB|AAA c2e|dBd e2:|
e|AAA g2e|g2d BGB|AAA a2e|g2e a2e|
g2a g2e|d2c BGB|AAA c2e|dBd e2:|

